X: 200
T: Uvanu Batim
O: Israel
C: Yadidia Admon 1948
N: Tikva Records T104: Dance for Fun, Ayala Goren, Shai Burstyn, Geula Zohar
M: 4/4
L: 1/4
K: Am
Q: 1/4=132
%%MIDI program 57 Trombone
c/A/ A A A |e/4f/4e/4d/4 e3|c/A/ A A A| G3/2E/ A2|\
c/A/ A A A |e/4f/4e/4d/4 e3|c/A/ A A A| G3/2E/ A2| 
d3/2d/ d d| f/4e/4d3|d3/2d/ d d| c/4B/4A3|\
d3/2d/ d d| f/4e/4d3|d3/2d/ d d| c/4B/4A3|



